X: 35
T:Blarney Pilgrim
M:6/8
L:1/8
R:Jig
N:http://www.lesession.co.uk
Z:Steve Mansfield 1998-2001
K:G
DED DEG | A2 G ABc | BAG AGE | GEA GED | 
DED DEG | A2 G ABc | BEG AGE | GED D3 :: 
ded dBG | AGA BGG | ded dBG | ABA G2 d | 
g2 d BAG | AGA BGB | cBA BAG | AGE D3 :: 
ADD BDD | ABA ABc | BAG AGE | GEA GED | 
ADD BDD | ABA ABc | BAG AGE | GED D3 :|
<end>
<start>
